X: 1
T:Alexander William MacDonnell
R:jig
C:Jerry Holland, SOCAN
O:20th Century Cape Breton
S:Tune ofthe Month, October 1999
D:Fiddler's Choice, Odyssey Records,1999
A:<http://www.jerryholland.com>
N:Contacts ...
N:Bookings,Mechanicals etc.
N:..... Jerry Holland <jerry@cranfordpub.com>
N:Tune books, related recordings
N:..... Cranford Publications <http://www.cranfordpub.com>
B:Previously Unpublished.
H:Copyrights - Publisher:Fiddlesticks Music (SOCAN).
Z:This abc transcription is for personal use only
Z:provided this notice remains attached.
Z:Used by permission of the composer and publisher.
Z:Paul Stewart Cranford 
L:1/8
Q:300
M:6/8
K:G
D|GAB d2 B|dba g2d|ege ede|gdB AGE|!
GAB d2 B|dba g2d|ege edB|A3 G2:|!
|:z|bgb bgb|aga bag|ege ege|edB AGE|!
[1bgb bgb|aga bag|ege edB|A3 G2:|!
[2GAB d2 B|dba g2d|ege edB|A3 G2|]!
